img/icons/icon_twitter_.svg

<svg width="45" height="48" viewBox="0 0 45 48" fill="none" xmlns="http://www.w3.org/2000/svg">
<path d="M-156 -2820H612V285H-156V-2820Z" fill="white"/>
<path d="M-1 0H45V48H-1V0Z" fill="#81B3D2"/>
<path d="M24.95 17.1441C26.635 16.6481 27.934 17.4141 28.527 18.3231C29.2 18.0921 29.858 17.8421 30.538 17.6151C30.5249 18.3015 30.2117 18.9476 29.681 19.3831C30.366 19.5531 30.985 18.8921 30.985 18.8921C30.816 19.8921 29.979 20.6801 29.422 20.9161C29.191 27.6661 26.247 32.1331 19.345 31.9981H18.899C18.489 31.9981 14.735 31.5381 14.001 30.1111C16.272 30.3071 17.894 29.6891 18.694 28.9341C17.734 28.6341 16.015 28.4571 15.715 25.9841C16.064 26.0901 16.279 26.2121 16.905 26.1031C15.705 25.2471 14.374 24.5301 14.448 22.3301C14.733 22.6581 15.515 22.8661 15.788 22.8021C15.085 22.5611 13.818 19.4421 14.894 17.8501C16.712 19.7041 18.629 21.4561 22.046 21.6231C22.254 19.3301 23.183 17.7931 24.95 17.1441Z" fill="white"/>
</svg>

<svg width="45" height="48" fill="none" xmlns="http://www.w3.org/2000/svg">
    <path d="M-156-2820h768V285h-768v-3105z" fill="#fff"/>
    <path d="M-1 0h46v48H-1V0z" fill="#81B3D2"/>
    <path d="M24.95 17.144c1.685-.496 2.984.27 3.577 1.18.673-.232 1.331-.482 2.011-.709a2.345 2.345 0 01-.857 1.768c.685.17 1.304-.49 1.304-.49-.169 1-1.006 1.787-1.563 2.023-.231 6.75-3.175 11.217-10.077 11.082h-.446c-.41 0-4.164-.46-4.898-1.887 2.271.196 3.893-.422 4.693-1.177-.96-.3-2.679-.477-2.979-2.95.349.106.564.228 1.19.12-1.2-.857-2.531-1.574-2.457-3.774.285.328 1.067.536 1.34.472-.703-.24-1.97-3.36-.894-4.952 1.818 1.854 3.735 3.606 7.152 3.773.208-2.293 1.137-3.83 2.904-4.479z" fill="#fff"/>
</svg>
